!!!COM: Music21
!!!OTL: jig_Tuppence-A-Bag
!!!OMV: jig_Tuppence-A-Bag
**kern
*clefG2
*k[]
*M6/8
=1
4c
8e
8gL
8e
8dJ
=
8cL
8e
8aJ
4.g
=
8gL
8e
8dJ
8cL
8e
8gJ
=
8aL
16gL
16eJ
8cJ
8eL
8d
8dJ
=
4.e
8cL
8e
8gJ
=
8aL
8g
8eJ
8gL
8e
8cJ
=
4.A
4G
8A
!!linebreak:original
=
8GL
8e
8dJ
8cL
8e
8dJ
=||
*M6/8
4c
8e
8gL
8e
8dJ
=
8cL
8e
8aJ
4.g
=
8gL
8e
8dJ
8cL
8e
8gJ
=
8aL
16gL
16eJ
8cJ
8eL
8d
8dJ
=
4.e
8cL
8e
8gJ
!!linebreak:original
=
8aL
8g
8eJ
8gL
8e
8cJ
=
4.A
4G
8A
=
8GL
8e
8dJ
8cL
8e
8gJ
=||
4.f
8aL
8f
8aJ
=
8gL
8e
8cJ
4.g
=
8fL
8d
8BJ
4G
8f
=
8eL
8c
8aJ
4g
8e
!!linebreak:original
=
4.f
8aL
8f
8aJ
=
8gL
8e
8cJ
8gL
8e
8cJ
=
4.A
4G
8A
=
8GL
8e
8dJ
4.c
=||
4.f
8aL
8f
8aJ
=
8gL
8e
8cJ
4.g
=
8fL
8d
8BJ
4G
8f
!!linebreak:original
=
8eL
8c
8aJ
4g
8e
=
4.f
8aL
8f
8aJ
=
8gL
8e
8cJ
8gL
8e
8cJ
=
4.A
4G
8A
=
8GL
8e
8dJ
4.c
=||
*-
